src/Resources/ssw_in_out_manual128.svg

<?xml version="1.0" encoding="UTF-8" standalone="no"?>
<svg
   xmlns:dc="http://purl.org/dc/elements/1.1/"
   xmlns:cc="http://creativecommons.org/ns#"
   xmlns:rdf="http://www.w3.org/1999/02/22-rdf-syntax-ns#"
   xmlns:svg="http://www.w3.org/2000/svg"
   xmlns="http://www.w3.org/2000/svg"
   xmlns:sodipodi="http://sodipodi.sourceforge.net/DTD/sodipodi-0.dtd"
   xmlns:inkscape="http://www.inkscape.org/namespaces/inkscape"
   width="128"
   height="128"
   version="1.1"
   id="svg10"
   sodipodi:docname="ssw_in_out128.svg"
   inkscape:version="0.92.2pre0 (973e216, 2017-07-25)">
  <metadata
     id="metadata16">
    <rdf:RDF>
      <cc:Work
         rdf:about="">
        <dc:format>image/svg+xml</dc:format>
        <dc:type
           rdf:resource="http://purl.org/dc/dcmitype/StillImage" />
        <dc:title></dc:title>
      </cc:Work>
    </rdf:RDF>
  </metadata>
  <defs
     id="defs14" />
  <sodipodi:namedview
     pagecolor="#ffffff"
     bordercolor="#666666"
     borderopacity="1"
     objecttolerance="10"
     gridtolerance="10"
     guidetolerance="10"
     inkscape:pageopacity="0"
     inkscape:pageshadow="2"
     inkscape:window-width="1920"
     inkscape:window-height="998"
     id="namedview12"
     showgrid="false"
     inkscape:zoom="5.2149125"
     inkscape:cx="104.16602"
     inkscape:cy="67.303022"
     inkscape:window-x="0"
     inkscape:window-y="0"
     inkscape:window-maximized="1"
     inkscape:current-layer="svg10" />
  <path
     style="fill:#197dbf; stroke:none;"
     d="M4 68C11.678 73.7435 23.9588 76.0901 33 79.3079C36.2247 80.4555 40.5121 82.6414 44 81.8164C49.5261 80.5091 54.7889 73.9823 59 70.4244C69.8104 61.2906 80.3229 50.9845 92 43C84.5498 51.5344 77.3389 60.3004 70.0802 69C65.5542 74.4245 60.2486 79.7044 57 86C68.0717 90.2393 79.726 93.0089 91 96.6698C94.0627 97.6643 100.324 100.889 103.411 98.8819C105.193 97.7237 105.425 94.8678 105.883 92.9992C107.276 87.329 108.769 81.6813 110.116 76C113.355 62.3352 116.472 48.6252 119.873 35C122.167 25.8135 125.247 16.4669 126 7C110.859 11.3617 96.1135 21.6963 82 28.7531C56.114 41.6961 28.9905 53.4139 4 68z"
     id="path4" />
  <path
     style="fill:#197dbf; stroke:none;"
     d="M58 95C58 104.296 58.7022 113.831 57 123C63.6657 118.956 70.265 107.216 73 100C68.0634 98.0956 63.1641 96.1947 58 95z"
     id="path8" />
  <rect
     style="fill:#000000;fill-opacity:0"
     id="rect15661"
     width="17.2582"
     height="16.107653"
     x="9.7796459"
     y="7.5761194" />
  <rect
     style="fill:#197dbf;fill-opacity:1"
     id="rect15669"
     width="23.777964"
     height="23.777964"
     x="5.7527332"
     y="4.6173306"
     ry="11.888982"
     rx="11.888982" />
  <rect
     style="fill:#197dbf;fill-opacity:1"
     id="rect15669-3"
     width="23.777964"
     height="23.777964"
     x="7.1365881"
     y="99.980408"
     ry="11.888982"
     rx="11.888982" />
  <path
     style="fill:#ff0000;fill-opacity:1;stroke-width:0.19175777"
     d="m 16.411481,123.37618 c -2.109273,-0.45784 -3.965383,-1.51703 -5.690595,-3.24735 -2.4295978,-2.43679 -3.4382572,-4.89313 -3.4278126,-8.34758 0.00524,-1.73185 0.086174,-2.24261 0.5786815,-3.65187 0.7143458,-2.04402 1.673457,-3.50467 3.2496291,-4.94895 4.128556,-3.783072 10.18567,-4.140957 14.780862,-0.87333 2.247276,1.59803 3.909883,4.05445 4.592972,6.78589 0.432935,1.73116 0.279884,5.00648 -0.312519,6.68795 -0.560424,1.5907 -2.062031,3.81805 -3.309979,4.90972 -2.787055,2.43805 -6.825338,3.47472 -10.461239,2.68552 z"
     id="path15705"
     inkscape:connector-curvature="0" />
</svg>

<svg width="128" height="128" xmlns="http://www.w3.org/2000/svg">
 <metadata id="metadata16">image/svg+xml</metadata>

 <g>
  <title>background</title>
  <rect x="-1" y="-1" width="130" height="130" id="canvas_background" fill="none"/>
 </g>
 <g>
  <title>Layer 1</title>
  <path d="m4,68c7.678,5.7435 19.9588,8.0901 29,11.3079c3.2247,1.1476 7.5121,3.3335 11,2.5085c5.5261,-1.3073 10.7889,-7.8341 15,-11.392c10.8104,-9.1338 21.3229,-19.4399 33,-27.4244c-7.4502,8.5344 -14.6611,17.3004 -21.9198,26c-4.526,5.4245 -9.8316,10.7044 -13.0802,17c11.0717,4.2393 22.726,7.0089 34,10.6698c3.0627,0.9945 9.324,4.2192 12.411,2.2121c1.782,-1.1582 2.014,-4.0141 2.472,-5.8827c1.393,-5.6702 2.886,-11.3179 4.233,-16.9992c3.239,-13.6648 6.356,-27.3748 9.757,-41c2.294,-9.1865 5.374,-18.5331 6.127,-28c-15.141,4.3617 -29.8865,14.6963 -44,21.7531c-25.886,12.943 -53.0095,24.6608 -78,39.2469z" id="path4" fill="#197dbf"/>
  <path d="m58,95c0,9.296 0.7022,18.831 -1,28c6.6657,-4.044 13.265,-15.784 16,-23c-4.9366,-1.9044 -9.8359,-3.8053 -15,-5z" id="path8" fill="#197dbf"/>
  <rect id="rect15661" width="17.2582" height="16.107653" x="9.779646" y="7.576119" fill-opacity="0" fill="#000000"/>
    <path id="svg_1" d="m6.96951,36.47181l20.96074,-36.68131l20.96074,36.68131l-41.92148,0z" stroke-opacity="null" stroke-width="null" fill="#6080FF" stroke="null"/>
  <path id="svg_2" d="m6.96951,127.55622l20.96074,-36.68131l20.96074,36.68131l-41.92148,0z" stroke-opacity="null" stroke-width="null" fill="#C06000" stroke="null" transform="rotate(180 27.930252075195312,109.21556091308594) "/>
 </g>
</svg>
